X: 18
M: C|
L: 1/8
K: D
f>ga>f b>ge>c | d2d2 d2 :|
|: (3ABc |\
d>fd>f c>ec>e | B>cd>e d>cB>A |\
f>ga>f b>ge>c | d2d2 d2 H:|

